icon-themes/sifr_svg/cmd/lc_flowchartshapes.flowchart-punched-tape.svg

<svg viewBox="0 0 24 24" xmlns="http://www.w3.org/2000/svg"><g fill="#555753"><path d="m18.5 5c2.150147 0 3.65464 1.1227619 4.5 1.5211188v7.6864122c-.797883-.333282-2.017578-1.207531-4.5-1.207531s-4.795589 3.529211-6.78125 4.933462c-1.8303474 1.294413-5.3419228 1.223455-6.6054688.764605-.8801762-.31963-3.5490198-2.878163-4.1132812-3.319356v-7.5225677c.4891858.3402792 3.06488 2.7557947 3.78125 3.0159417 1.4897162.540981 5.432714.573982 7.5-.8879941 1.911972-1.3521372 4.068603-4.9840909 6.21875-4.9840909z" opacity=".35"/><path d="m18.5 4c-1.638129 0-2.826041 1.1658151-3.916016 2.2871094-1.089974 1.1212943-2.12478 2.3461641-2.880859 2.8808594-.786036.5558816-2.1457441.9152582-3.4628906 1.0136722-2.7278997.029485-5.6994385-2.181641-8.2402344-4.2382816v9.9218746c2.4427707 2.504635 4.7308045 4.134766 8.2714844 4.105469 1.3768098-.0944 2.8570366-.394448 4.0253906-1.220703 1.165817-.824461 2.223521-2.05 3.306641-3.078125 1.083119-1.007881 2.129167-1.671875 2.896484-1.671875 2.247638 0 3.077897.7 4.1 1.1l1.4.608984v-9.8222652l-.574219-.2695313c-.6038-.2845272-2.425781-1.6171875-4.925781-1.6171875zm0 2c1.509744 0 2.551331.6236059 3.5 1.1328125v5.5332035c-.840997-.340421-1.934895-.666016-3.5-.666016-1.715105 0-3.067328 1.101197-4.257812 2.208984-1.190485 1.107788-2.281719 2.328413-3.101563 2.9-.661993.468158-1.8534081.778407-3.0058594.857421-2.7684787.033595-4.8969725-1.727541-6.1347656-3.066405v-4.880469c2.4709338 3.165104 8 2.980469 10.859375.78125 1.155893-.800781 2.140625-2.0864236 3.140625-3.100781 1.021449-1.0510762 1.987982-1.7 2.5-1.7z"/></g></svg>

<svg xmlns="http://www.w3.org/2000/svg" viewBox="0 0 24 24">
  <path
     style="opacity:0.35;fill:#555753"
     d="m 18.5,5 c 2.150147,0 3.65464,1.1227619 4.5,1.5211188 V 14.207531 C 22.202117,13.874249 20.982422,13 18.5,13 16.017578,13 13.704411,16.529211 11.71875,17.933462 9.8884026,19.227875 6.3768272,19.156917 5.1132812,18.698067 4.233105,18.378437 1.5642614,15.819904 1,15.378711 V 7.8561433 c 0.4891858,0.3402792 3.06488,2.7557947 3.78125,3.0159417 1.4897162,0.540981 5.432714,0.573982 7.5,-0.8879941 C 14.193222,8.6319537 16.349853,5 18.5,5 Z"
     />
  <path
     style="fill:#555753"
     d="M 18.5,4 C 16.861871,4 15.673959,5.1658151 14.583984,6.2871094 13.49401,7.4084037 12.459204,8.6332735 11.703125,9.1679688 10.917089,9.7238504 9.5573809,10.083227 8.2402344,10.181641 5.5123347,10.211126 2.5407959,8 0,5.9433594 V 15.865234 C 2.4427707,18.369869 4.7308045,20 8.2714844,19.970703 9.6482942,19.876303 11.128521,19.576255 12.296875,18.75 13.462692,17.925539 14.520396,16.7 15.603516,15.671875 16.686635,14.663994 17.732683,14 18.5,14 c 2.247638,0 3.077897,0.7 4.1,1.1 L 24,15.708984 V 5.8867188 L 23.425781,5.6171875 C 22.821981,5.3326603 21,4 18.5,4 Z m 0,2 c 1.509744,0 2.551331,0.6236059 3.5,1.1328125 V 12.666016 C 21.159003,12.325595 20.065105,12 18.5,12 c -1.715105,0 -3.067328,1.101197 -4.257812,2.208984 -1.190485,1.107788 -2.281719,2.328413 -3.101563,2.9 -0.661993,0.468158 -1.8534081,0.778407 -3.0058594,0.857421 C 5.3662869,18 3.2377931,16.238864 2,14.9 V 10.019531 C 4.4709338,13.184635 10,13 12.859375,10.800781 14.015268,10 15,8.7143574 16,7.7 17.021449,6.6489238 17.987982,6 18.5,6 Z"
     />
</svg>
